apps/service-portal/src/assets/images/jobsGrid.svg

<svg width="61" height="77" viewBox="0 0 61 77" fill="none" xmlns="http://www.w3.org/2000/svg">
<path d="M42.8206 59.5694C42.5917 59.5694 42.4069 59.3845 42.4069 59.1556V14.5513C42.4069 11.3043 39.7641 8.66157 36.5172 8.66157H11.0881C7.84121 8.66157 5.19844 11.3043 5.19844 14.5513V25.1141C5.19844 25.343 5.01361 25.5278 4.78464 25.5278C4.55568 25.5278 4.37085 25.343 4.37085 25.1141V14.5513C4.37085 10.8464 7.38327 7.83398 11.0881 7.83398H36.5199C40.2248 7.83398 43.2372 10.8464 43.2372 14.5513V59.1556C43.2344 59.3845 43.0496 59.5694 42.8206 59.5694Z" fill="#6A2EA0"/>
<path d="M39.1958 57.9477C39.1958 61.3408 36.4455 64.0884 33.0551 64.0884C29.6648 64.0884 26.9144 61.338 26.9144 57.9477C26.9144 54.5546 29.6648 51.807 33.0551 51.807C36.4455 51.807 39.1958 54.5546 39.1958 57.9477ZM31.2427 6.20126H26.8537C26.8427 6.20126 26.8372 6.19022 26.8427 6.18195C27.2123 5.63022 27.433 4.97091 27.4523 4.25918C27.5075 2.124 25.6427 0.363992 23.513 0.540544C21.6482 0.695028 20.1806 2.25917 20.1806 4.16539C20.1806 4.91022 20.404 5.60539 20.7903 6.18195C20.7958 6.19022 20.7902 6.20126 20.7792 6.20126H16.8178C15.4109 6.20126 14.2716 7.34057 14.2716 8.74747C14.2716 10.1544 15.4109 11.2937 16.8178 11.2937H31.2427C32.6496 11.2937 33.7889 10.1544 33.7889 8.74747C33.7889 7.34057 32.6496 6.20126 31.2427 6.20126ZM23.8772 5.98884C22.793 5.98884 21.9158 5.10884 21.9158 4.02746C21.9158 2.94607 22.7958 2.06607 23.8772 2.06607C24.9613 2.06607 25.8385 2.94607 25.8385 4.02746C25.8385 5.10884 24.9613 5.98884 23.8772 5.98884ZM60.1532 33.1448H56.2938V65.4043H60.1532V33.1448Z" fill="url(#paint0_linear)"/>
<path d="M57.9462 76.7261C58.8572 76.7261 59.5958 75.9875 59.5958 75.0764C59.5958 74.1653 58.8572 73.4268 57.9462 73.4268C57.0351 73.4268 56.2965 74.1653 56.2965 75.0764C56.2965 75.9875 57.0351 76.7261 57.9462 76.7261Z" fill="#0061FF"/>
<path d="M30.5144 25.6577H0.536353C0.307387 25.6577 0.122559 25.4728 0.122559 25.2439C0.122559 25.0149 0.307387 24.8301 0.536353 24.8301H30.5144C30.7434 24.8301 30.9282 25.0149 30.9282 25.2439C30.9282 25.4728 30.7434 25.6577 30.5144 25.6577Z" fill="#6A2EA0"/>
<path d="M35.88 32.1489H14.7765C14.5475 32.1489 14.3627 31.964 14.3627 31.7351C14.3627 31.5061 14.5475 31.3213 14.7765 31.3213H35.8827C36.1117 31.3213 36.2965 31.5061 36.2965 31.7351C36.2965 31.964 36.1089 32.1489 35.88 32.1489Z" fill="#6A2EA0"/>
<path d="M30.5144 39.352H7.94053C7.71156 39.352 7.52673 39.1672 7.52673 38.9382C7.52673 38.7092 7.71156 38.5244 7.94053 38.5244H30.5144C30.7434 38.5244 30.9282 38.7092 30.9282 38.9382C30.9282 39.1672 30.7434 39.352 30.5144 39.352Z" fill="#6A2EA0"/>
<path d="M23.8026 59.5701H10.5529C4.44257 59.5701 4.37085 53.5922 4.37085 53.5315V39.1921C4.37085 38.9631 4.55568 38.7783 4.78464 38.7783C5.01361 38.7783 5.19844 38.9631 5.19844 39.1921V53.5315C5.19844 53.7439 5.27568 58.7425 10.5529 58.7425H23.8026C24.0316 58.7425 24.2164 58.9274 24.2164 59.1563C24.2164 59.3853 24.0316 59.5701 23.8026 59.5701Z" fill="#6A2EA0"/>
<path d="M60.1531 65.8185H56.2938C56.0648 65.8185 55.88 65.6336 55.88 65.4047V53.2308C55.88 53.0019 56.0648 52.817 56.2938 52.817C56.5228 52.817 56.7076 53.0019 56.7076 53.2308V64.9909H59.7393V33.559H56.7076V48.1274C56.7076 48.3563 56.5228 48.5412 56.2938 48.5412C56.0648 48.5412 55.88 48.3563 55.88 48.1274V33.1452C55.88 32.9163 56.0648 32.7314 56.2938 32.7314H60.1531C60.3821 32.7314 60.5669 32.9163 60.5669 33.1452V65.4047C60.5669 65.6336 60.3821 65.8185 60.1531 65.8185Z" fill="#6A2EA0"/>
<path d="M56.2938 33.5586C56.2524 33.5586 56.2111 33.5531 56.1697 33.5393C55.9518 33.4704 55.8304 33.2386 55.8993 33.0207L57.3035 28.5628C57.4331 28.1517 57.7945 27.8896 58.2221 27.8896C58.6525 27.8896 59.0111 28.1545 59.1407 28.5628L60.5449 33.0207C60.6138 33.2386 60.4925 33.4704 60.2745 33.5393C60.0566 33.6083 59.8249 33.4869 59.7559 33.269L58.3518 28.811C58.3269 28.731 58.2662 28.7145 58.2221 28.7145C58.1752 28.7145 58.1173 28.731 58.0925 28.811L56.6883 33.269C56.6331 33.4455 56.4704 33.5586 56.2938 33.5586Z" fill="#6A2EA0"/>
<path d="M23.8026 67.3242C23.6095 67.3242 23.4357 67.1891 23.3971 66.9904C23.353 66.767 23.4964 66.549 23.7226 66.5022C27.2785 65.7904 30.4316 63.8318 32.6496 61.6718C31.1489 59.6083 30.9999 57.2442 31.8082 55.5752C32.5254 54.0883 33.8661 53.4235 35.3006 53.84C36.3186 54.1352 36.8537 54.938 36.8041 56.0938C36.7379 57.6497 35.6206 59.749 33.7585 61.7297C34.1392 62.1573 34.5944 62.5656 35.1241 62.9435C39.0744 65.7463 42.5062 61.8842 42.6496 61.7187C42.7351 61.6194 42.8593 61.567 42.9944 61.578C43.1241 61.589 43.2427 61.658 43.3117 61.7683C43.3834 61.8814 45.1324 64.538 47.9214 62.9242C48.12 62.8111 48.371 62.8773 48.4869 63.0759C48.6027 63.2746 48.5338 63.5256 48.3352 63.6415C45.6041 65.2221 43.6482 63.4649 42.9227 62.618C41.8441 63.6359 38.4317 66.309 34.6441 63.6194C34.0785 63.2166 33.5903 62.7808 33.1765 62.3228C30.8647 64.5711 27.6096 66.5711 23.8854 67.3187C23.8551 67.3242 23.8275 67.3242 23.8026 67.3242ZM34.473 54.549C33.6785 54.549 32.9834 55.04 32.5503 55.9366C31.8772 57.3297 32.0013 59.3049 33.2344 61.0732C34.9034 59.2828 35.9158 57.4207 35.971 56.0607C36.0041 55.2883 35.7061 54.8221 35.0634 54.6345C34.8648 54.5766 34.6661 54.549 34.473 54.549Z" fill="#6A2EA0"/>
<defs>
<linearGradient id="paint0_linear" x1="18.5101" y1="3.02999" x2="55.93" y2="67.8431" gradientUnits="userSpaceOnUse">
<stop stop-color="#4C90FF"/>
<stop offset="1" stop-color="#FF4C84"/>
</linearGradient>
</defs>
</svg>

<svg width="61" height="77" fill="none" xmlns="http://www.w3.org/2000/svg"><path d="M42.82 59.57a.413.413 0 0 1-.413-.414V14.55a5.897 5.897 0 0 0-5.89-5.89H11.088a5.897 5.897 0 0 0-5.89 5.89v10.563a.413.413 0 1 1-.827 0V14.551a6.724 6.724 0 0 1 6.717-6.717H36.52a6.724 6.724 0 0 1 6.717 6.717v44.605a.417.417 0 0 1-.416.413Z" fill="#6A2EA0"/><path d="M39.196 57.948a6.14 6.14 0 1 1-12.282 0 6.14 6.14 0 1 1 12.282 0ZM31.243 6.2h-4.39c-.01 0-.016-.01-.01-.02.37-.55.59-1.21.61-1.922.055-2.135-1.81-3.895-3.94-3.718a3.638 3.638 0 0 0-2.723 5.641c.006.008 0 .02-.01.02h-3.962a2.545 2.545 0 1 0 0 5.092h14.425a2.545 2.545 0 1 0 0-5.093Zm-7.366-.212a1.962 1.962 0 1 1 .001-3.924 1.962 1.962 0 0 1 0 3.924Zm36.276 27.156h-3.86v32.26h3.86v-32.26Z" fill="url(#a)"/><path d="M57.946 76.726a1.65 1.65 0 1 0 0-3.3 1.65 1.65 0 0 0 0 3.3Z" fill="#0061FF"/><path d="M30.514 25.658H.536a.413.413 0 1 1 0-.828h29.978a.413.413 0 1 1 0 .828ZM35.88 32.149H14.776a.413.413 0 1 1 0-.828h21.107a.413.413 0 1 1-.003.828ZM30.514 39.352H7.941a.413.413 0 1 1 0-.828h22.573a.413.413 0 1 1 0 .828ZM23.803 59.57h-13.25c-6.11 0-6.182-5.978-6.182-6.038v-14.34a.413.413 0 1 1 .827 0v14.34c0 .212.078 5.21 5.355 5.21h13.25a.413.413 0 1 1 0 .828ZM60.153 65.819h-3.86a.413.413 0 0 1-.413-.414V53.23a.413.413 0 1 1 .828 0v11.76h3.031V33.559h-3.031v14.568a.413.413 0 1 1-.828 0V33.145c0-.229.185-.414.414-.414h3.86c.228 0 .413.185.413.414v32.26a.413.413 0 0 1-.414.413Z" fill="#6A2EA0"/><path d="M56.294 33.559a.413.413 0 0 1-.395-.538l1.404-4.458a.947.947 0 0 1 .92-.673c.43 0 .788.264.918.673l1.404 4.458a.413.413 0 1 1-.79.248l-1.403-4.458a.127.127 0 0 0-.13-.096c-.047 0-.105.016-.13.096l-1.404 4.458a.413.413 0 0 1-.394.29ZM23.803 67.324a.416.416 0 0 1-.08-.822c3.556-.712 6.709-2.67 8.927-4.83-1.501-2.064-1.65-4.428-.842-6.097.717-1.487 2.058-2.152 3.493-1.735 1.018.295 1.553 1.098 1.503 2.254-.066 1.556-1.183 3.655-3.046 5.636.381.427.836.836 1.366 1.214 3.95 2.802 7.382-1.06 7.526-1.225a.414.414 0 0 1 .662.05c.071.112 1.82 2.769 4.61 1.155a.415.415 0 0 1 .413.718c-2.73 1.58-4.687-.177-5.412-1.024-1.079 1.018-4.491 3.691-8.279 1.001a9.03 9.03 0 0 1-1.468-1.296c-2.311 2.248-5.566 4.248-9.29 4.996-.03.005-.058.005-.083.005Zm10.67-12.775c-.794 0-1.49.491-1.923 1.388-.673 1.393-.549 3.368.684 5.136 1.67-1.79 2.682-3.652 2.737-5.012.033-.773-.265-1.239-.908-1.426a2.11 2.11 0 0 0-.59-.086Z" fill="#6A2EA0"/><defs><linearGradient id="a" x1="18.51" y1="3.03" x2="55.93" y2="67.843" gradientUnits="userSpaceOnUse"><stop stop-color="#4C90FF"/><stop offset="1" stop-color="#FF4C84"/></linearGradient></defs></svg>
